X: 124
T: Old Faithful
C: Jerry Holland
R: march
Z: 2014 John Chambers <jc:trillian.mit.edu>
S: printed page of unknown origin from Concord Slow Scottish Session collection
M: C|
L: 1/8
K: D
ag "A"|\
f2ed Tc2Bc | d2AG TF2ED |"^B3:"{F}GFGB AFd>A |
TF2E2 E2ag | f2ef Tg>edc | d>AB<G TF2ED | GBd>B A>FG>E | F2D2 D2 :|
fg "B"|\
abTag Tf2ef | gaTge Tc2BA | {e}dcde f<aTgf | e2E2 E2fg | abTag Tf2ef |
Tgedc d2((3AB=c) | BAG>B A>FG<E | F2D2 D2fg | abTag f2ef | Tgedc d2(3(AB=c) |
BAGB AFd<A | TF2E2 EGFE | D>FA<d E>GB<e | F>Adf g2bg | Ta>fe>d c>ba<g | f2d2 d2 |]
|["Var. to B3" {A}GFGB Acd>A |]

%%sep 1 1 500

